!!!COM: Ce/cile Chaminade
!!!CNT: Francais
!!!TXO: Francais
!!!OTL: "Aupre\s de ma mie"
!!!LYR: Pradels, Octave
!!!ENC: Amanda Harris
!!!YOR: Album of Songs, Volume 1
!!!YOR: Da Capo Press
!!!ODT: 1888/
!!NB: Vocal melody and text encoded
**kern	**silbe
*clefG2	*
*k[f#]	*
*M2/4	*
*MM[96]	*
=6	=6
{8g	{Si
8dd	j'e/-
8dd	-tais
16cc	l'oi-
16b	|
=7	=7
8a	-seau
16g	le/-
16a	|
8b	-ger
8cc	Des
=8	=8
8dd	fo-
4ee	-re^ts
8cc	sau-
=9	=9
4dd	-va-
8dd}	-ges,}
8r	.
=10	=10
{8g	{Ah!
8dd	je
8dd	vou-
16cc	-drais
16b	|
=11	=11
8a	voy-
16g	-a-
16a	|
8b	-ger
8cc	Sur
=12	=12
8dd	tous
4ee	les
8dd	ri-
=13	=13
4cc	-va-
4b	|
=14	=14
8a}	-ges.}
8r	.
4r	.
=21	=21
{8g	{J'i-
8a	-rais
8b	sous
8b	le
=22	=22
8ee	ciel
8ee	heu-
4b	reux,
=23	=23
8g	Ou\
8a	Gol-
8b	-conde
8cc#	est
=24	=24
4dd	rei-
8dd}	-ne}
8r	.
=25	=25
{8fn	{Trem-
8g	-per
8a	mon
8a	aile
=26	=26
8dd	aux
8dd	flots
4d	bleus
=27	=27
8d	De
8ee	la
8dd	mer
16cc	se-
16b	|
=28	=28
4a	-rei-
8a}	-ne.}
8r	.
=29	=29
{8g	{I-
8dd	-vre
8dd	de
16cc	ciel
16b	|
=30	=30
8a	a-
16g	-zu-
16a	|
8b	-re/
8cc	Et
=31	=31
8dd	de
4ee	po-
! NB: Notated as an eighth but context makes clear it's a quarter note.	!
8cc	-e/-
=32	=32
4dd	-si-
8dd}	-e,}
8r	.
=33	=33
{8g	{Par
8dd	les
8dd	airs
16cc	j'i-
16b	|
=34	=34
8a	-rais
16g	au-
16a	|
8b	-gre/
8cc	De
=35	=35
8dd	ma
4ee	fan-
8dd	-tai-
=36	=36
4cc	-si-
4b	|
=37	=37
8a}	-e.}
8r	.
4r	.
=44	=44
{8g	{Mais
8a	non,
8b	je
8b	n'ai
=45	=45
8ee	pas
8ee	son-
4b	-ei
=46	=46
8g	De
8a	loin-
8b	-tai-
8cc#	-ne
=47	=47
4dd	gre\-
8dd}	-ve,}
8r	.
=48	=48
{8fn	{Je
8g	veux
8a	vi-
8a	-vre
=49	=49
8dd	pre\s
8dd	d'i-
4d	-ci
=50	=50
8d	Mon
8ee	fol
8dd	et
16cc	doux
16b	|
=51	=51
4a	re^-
8a}	-ve,}
8r	.
=52	=52
{8g	{Car
8dd	je
8dd	n'ai
16cc	qu'un
16b	|
=53	=53
8a	seul
16g	de/-
16a	|
8b	-sir
8cc	Et
=54	=54
8dd	ma
4ee	seule
8cc	en-
=55	=55
4dd	-vi-
8dd}	-e}
8r	.
=56	=56
{8g	{C'est
8dd	d'e/-
8dd	-cou-
16cc	-ter
16b	|
=57	=57
8a	a\
16g	loi-
16a	|
8b	-sir
8cc	|
=58	=58
8dd	Le
4ee	chant
8dd	|
=59	=59
4cc	de
4b	ma
=60	=60
2a	mi-
=61	=61
4g}	-e.}
4r	.
*-	*-
